X:1
T:Title
%%score { ( 1 4 ) | ( 2 3 ) }
L:1/8
M:9/8
K:G
V:1 treble nm="Grand Piano"
V:4 treble 
V:2 bass 
V:3 bass 
V:1
 z3 z3[Q:1/4=108] D2 G | [DB]3- [DB]2 B [CA]BA | [B,G]3 .[B,D]3 G2 B | [Bd]3- [Bd]2 d [Ac]dc | %4
[M:3/4] [GB]6 |[M:3/8] z3 |[M:9/8] [DB]3- [DB]2 B [CA]BA | [B,G]3 .[B,D]3 G2 B | z3 z3 .^c3 | %9
[M:3/4] [Fd]6 |[M:3/8] [Gd]2 [Gd] |[M:9/8] [Ge]6 z3 | d3 .B3 B2 B | [^DB]6 z3 |[M:3/4] [^DB]6 | %15
[M:3/8] B2 A |[M:9/8] z2 B, B,2 A Bcd | [Ee]3 .[Ec]3 [CE]2 [CEA] | [B,DG]2 [A,DF] [DFB]3 [CFA]3 | %19
[M:3/4] [B,DG]6 |] %20
V:2
 z3 z3 B,2 B, | G,,B,,D, z2 D z DC | G,,B,,D, .G,3 B,2 D | G,,B,,D, z2[K:treble] B z BA | %4
[M:3/4][K:bass] G,,B,, D, .G,3 |[M:3/8] D2 D |[M:9/8] G,,B,,D, z2 D z DC | G,,B,,D, .G,3 B,2 D | %8
 A,,D,F, z2 F z2 G |[M:3/4] [D,A,]6 |[M:3/8] [G,B,]2 [G,B,] | %11
[M:9/8] [C,C]2 C, C,2 [C,C] [E,C]2 [C,C] | [G,B,G]3 .[G,DG]3[K:bass] B,2 B, | %13
 B,,2 B,, B,,2 B,, E,2 [C,E,] |[M:3/4] [B,,F,]6 |[M:3/8] [D,F,D]2 [D,CD] | %16
[M:9/8][K:treble] D2- [G,D-] [G,D]2 [G,CD] [G,=F]-[G,CF][G,B,F] | %17
 [C,C]3 .[C,G,]3 z[K:treble] B[K:bass]C, | D,2 D, D,3 D,3 |[M:3/4] G,,6 |] %20
V:3
 x9 | z3 G,3 D,3 | x9 | z3 G,3[K:treble] D,3 |[M:3/4][K:bass] x6 |[M:3/8] x3 |[M:9/8] z3 G,3 D,3 | %7
 x9 | z3 A,3 [A,,A,]3 |[M:3/4] x6 |[M:3/8] x3 |[M:9/8] x9 | x6[K:bass] x3 | x9 |[M:3/4] x6 | %15
[M:3/8] x3 |[M:9/8][K:treble] .[G,B,]3 z3 .D3 | z3 z3 .C,3[K:treble][K:bass] | x9 |[M:3/4] x6 |] %20
V:4
 x9 | x9 | x9 | x9 |[M:3/4] x6 |[M:3/8] x3 |[M:9/8] x9 | x9 | [FA]3- [FA]2 A G-[GB]^c |[M:3/4] x6 | %10
[M:3/8] x3 |[M:9/8] z2 C C2 [Ge] [Gc]2 [Ge] | x9 | B,2 B, B,2 [B,^DF] [B,EG]2 [EA] |[M:3/4] x6 | %15
[M:3/8] x3 |[M:9/8] G6 z3 | x9 | x9 |[M:3/4] x6 |] %20

